/* XPM */
static char *result[] = {
/* columns rows colors chars-per-pixel */
"64 64 61 1 ",
"  c #020100",
". c #0B0600",
"X c #0E0900",
"o c #130A00",
"O c #1A0E00",
"+ c #1E1000",
"@ c #251500",
"# c #291500",
"$ c #2C1B00",
"% c #321E00",
"& c #391F00",
"* c #362100",
"= c #3C2200",
"- c #452500",
"; c #4A2700",
": c #452800",
"> c #4B2A00",
", c #532E00",
"< c #553200",
"1 c #5B3300",
"2 c #5B3900",
"3 c #653600",
"4 c #653800",
"5 c #6B3B00",
"6 c #733E00",
"7 c #764100",
"8 c #7B4300",
"9 c #7F4800",
"0 c #814600",
"q c #854A00",
"w c #8B4C00",
"e c #8F5000",
"r c #945300",
"t c #9A5700",
"y c #9D5A00",
"u c #A35C00",
"i c #A95F00",
"p c #9E6200",
"a c #A16500",
"s c #AB6200",
"d c #B16600",
"f c #B66900",
"g c #BB6C00",
"h c #BF7000",
"j c #C16F00",
"k c #C47200",
"l c #C97600",
"z c #CD7900",
"x c #D27D00",
"c c #D58400",
"v c #DB8500",
"b c #D58800",
"n c #DF8800",
"m c #E48C00",
"M c #E88F00",
"N c #E69200",
"B c #EC9200",
"V c #F29700",
"C c #F49A00",
"Z c #F99D00",
"A c #FEA300",
/* pixels */
"AAAAAAZAAAAAAAABmxxmMZAAAAAAAZAAAAAAAAAAAAAAAAAAAAZAAZAAZAAAZAZA",
"AAAAAZAAAAAAAACNxzzxMZAAAAAAAAAZAAAAAAAAAAAAAAAAZAAAAZAAZAAZAAAA",
"VVCAAAAZZZZZAZCMxllzmVZZAZAAZAZZAZCZAAAAAAAAAAAAAAAAAAAAAAZAAAAA",
"mMNVZZZZVBBVZZBvkgglmMZZBBBBZAZZVBBVZAAAAAAAAAAAAAAAAAAAAAAAAAAA",
"ccmmVZZVMmmMVCBcfidgxBZVNmmMVZZVmmvmVZAAAAAAAAAAAZAAAAAAZAZAAAAA",
"zzxvMVVMmxxvBVmxduudxMBBvxxmMVVVmvcmBCAAAAAAAAAAAAZAAZAZAAAAAAAA",
"zzxmMMMmxxxcMMmkirrilmBMcxxxmMVMvxcmMBCZZZZZZAAAAZAAAAAAAAAAAVCC",
"cvmmMMmvzlzxvmxguewujxmxxxlxxmmmmmvmmMMBMBBVZAAAAAAZZAAAAAAZBNNN",
"BBMMmmxxllllxxlgtwwtflxxzlllxxxmmMMMmvxxvvmMVZZAAAAAAAAAAAABMvcx",
"ZVBmxxxlkkkllljdrwwrdkllkkjllxxmMMMMmxzzlzxxBZZAAAAAAAAAAAVBncxx",
"ZVBmxxkjjkkkljgitqqrifkkkkkjjlzxmMMMczljjlxxmBVZAAAAAAAAAVBMmxzz",
"BBmmxlkjkkkkkjgirwqeijjkkkkkjjlxvmmmxljjjklxxmBVAAAAAAZZVBBmmmvx",
"xmxxzlkjkkkkkjgirwwrigjjkkkkkllzxxxxzlkjjkklxxmmCAAAAAZVMmmmmMMM",
"llllkjkkkkkkkjfiewqeifjjjjjjjjjllzllljjjjkkklxxmBCAAZZCBmxxxmMVZ",
"ddjjjjjkkkjkkjdue00wudgjgfgggjkkkljjggggjjjjjkzxmBVAZZBmmxxmMVZV",
"uuidgjkkkkklkjdr6356tifgddidgjkkkjjgdiidgjjkjklxcnNNBMMmmmmmmMBB",
"wwrudgjkkklkljsw3>>3wufdiutudgjllkgduttudgjljkllxxvvxvmmmMMmmmcv",
"0wetifjkkjklkgu0,&=>9yssuretidjkkgfstretifgjkjjllzxzzzxvMMBMvxxz",
"wwetidfgjjkkkft7-$$:7rsurreriddggfdutwetudfgjjjlllklllxcmMMmxzlj",
"rrttuiidgjjjgsw4=@+=4wyuutttuuiisuuuttttuiidgjjljkjjkjlxmmmvxljj",
"iiuuttyidgjgst91$OO%18tyuuuutrrrtrttuuuuttyidgjljljkkkkzxcxxxljj",
"fdiurerysffsyw5;#oo@>6wtiiiutewwqwwruiiureryifjjjjjjjjjklllljkjj",
"ffduewweusiyw71=+oo@&17wuiiurw0088qruiiuwwweudfggggggggggggggggg",
"siutw00wtytw62:$O..o#-27wuuueq06880wtuuyw00wtuiiisisssssssssssss",
"trre080weew61=@o.  .o@=27wrew006880werre0880etrttrrtrtrtrtrrrrrt",
"000666880863=@o.    .o@=2680886666060000656660080000080008000000",
"3333334443,-@o.      .o@-133343331333333331333333333334443333333",
";;;;;-;;;-&#o.        .o#&-;;-----;-----;;-;;;;;;;;;;----;------",
"@@@#@##@@@+o.          .o+@@@#@#########$@@@@@#@####@#@@@@@@#@##",
"OOOOO+++OOOoX.....X....XoO++++++O+OOO+OO++++++OOOoooo+++O@++++OO",
"@+@@$$$$%%$$$$@$$@$$$$$@$$%$$$%$%$$%$%$$$$%$$$#+Oooo+@$%$$%$$$%$",
"---;<1222212222222224422221222222222221322222<;&+oo@=><222222113",
"788wepppppppaaaaapapaaaapppppppaaapppppppppaap97*@@*29aaaaaaapap",
"yuashlccbbbbbcbbbbbbccbcbbbbbcccccbbbbbbbbbbbza9=$%=9abbbbbbbbbb",
"sfglbBVZCCCCCCCCCCBBBNVVCCCCNVMVVCCACCCCACCCCNzp<%*2abNCNCACCNNN",
"sdgzNZAAAAZAAAAAACVVBVZZAAAAVVVZAAAAAAAAAAAAANzr<%*2abCAAAAACCNN",
"ttihmVZZNBNBZZZZBMnvvmmVAAANmmmMCAAAAAAAAAAAVngw=%*2abCAAAZVNbbb",
"qwtfxVZCNcvmMZZVMcxzzxcmCAZNmmvmNCAAAAAAAAAVNza7=$$2abCAAACBbbcb",
"8qrdcBVVmxccmMBMczlkklxcBBVNvxvvNNAACAAAZCBBvku7=$%2abCAAZBMnczz",
"88rsxMVMvzzxxmmmxlkggkkxvmNmmvmmmNNNNCNNBBMnxgy7=**2abCAVBMmnvvv",
"60rsxBVBvxllxxxxzljjjjllxxmmmmMMnvvcxvmvvvxxlgu7=$$2pbVABMmmmMMM",
"60rszNBBvzkklzzllkljljkjlzxmMMMMncxzzzlzzzzzlgu7=$%2pcBVMvcvmMVZ",
"80eslvMMxzlkjjlkkkklkkkjjlxxmMMMmxxlljkjjkkllgu7:$%2ylMBvxxcmBVZ",
"80eikcnvxzkjjjjkjkkjkkkkjjlxmmMMmmxxzjjjjjjklhu7=$$<ehvnxllcmMMB",
"88wugzxczlkkjjjjkkjjkkkkjkllxxvmmmmvxljjjjjklju8=$$:wszczllzzxmx",
"67qrsgllkjjjjljjjjjjjkkkkkllzzxmMMMmclkjjjjklgu8:$$=9slzlljlllzl",
"345qtsggggfgjjjjjfggjjjkljjljlzxmBBmxzjjjklllgu8=@$=7uglljjjjffd",
";>149tussssdgjjffiidfjkkjjljjjlxvmmvxzljjkkllgu6=$$=8uglzjjfduuu",
"#%=,50errruudfgduttudgjlkljjjklzxxxxzkkkkkkllgu8:$@=9ugllkgdutew",
"oo$=,60wwweuidditeetifjjjjjlkkklzzzllkkkkkkkkgu6:$$=7ugllkfstewq",
" .o%,36060weiiiitrerusfgjjjlkkkklklkkkkkkkjkkft6=@$=7uglkgdutwwq",
"  o#>366600wtuuuttttuiifgjjjkkkkljjkkkkkkkgggie3*@$:7agkfdsyttrt",
"  o#;3666060wetyuuuuttuudgjlklkkjjljkkkllkgfit01*+@:9aggsyttyuss",
"  .@-166060080wriiiureeuifjlkjjgjjjjkgkkkgfsuw6>$O+=7ydsyrrrusff",
"  .@&,366606680ruiiuewweudfgggggggggfgggggsurq5;+OO*49ttewweusdf",
"  .O$=136866000wtuutw00wyuiissisississssiiuue03;$oX+:47900qwtuss",
"   .o@=<366860qwertr0600errtrtttttrtrrtrttrew83;#o..+&;2480wertr",
"    .o@=,35666608006666660000000080000000000061;#o  .O$=,4680000",
"     .o#-,333333433453335335333333355333334433>=@o.  .o#-,345333",
"      .o$&-;;;;;;;;;;;;;;>;;;;;;;;;>;;;;;;;;;;&$O.    .o#=-;;;;;",
"       .O@######@@#@###@#########@############@Oo      .o@######",
"        .oooooooooooooooooooooo.oooooooooooooooX        ..oooooo",
"         .  . .  .     .   . .     .  .   .                 .   ",
"                                                                "
};
